images/robot-head.svg

<svg xmlns="http://www.w3.org/2000/svg" viewBox="0 0 256 256" enable-background="new 0 0 256 256"><style type="text/css">.st0{fill:#4F9AD4;}</style><path class="st0" d="M40.7 109.9s-1.8-4.4-1.8-9.9c0-5.4 1.8-9.9 1.8-9.9-.3 0-37.2 9.9-37.2 9.9s36.9 9.9 37.2 9.9zM215.3 90.2s1.8 4.4 1.8 9.9c0 5.4-1.8 9.9-1.8 9.9.3 0 37.2-9.9 37.2-9.9s-36.9-9.9-37.2-9.9z"/><circle class="st0" cx="89.8" cy="99.5" r="11.1"/><path class="st0" d="M196 85.7c1.4 0 2.6 1.2 2.6 2.6v23.4c0 1.4-1.2 2.6-2.6 2.6h-136c-1.4 0-2.6-1.2-2.6-2.6v-23.3c0-1.4 1.2-2.6 2.6-2.6h136m0-13.4h-136c-8.8 0-16 7.1-16 16v23.4c0 8.8 7.1 16 16 16h136c8.8 0 16-7.1 16-16v-23.4c0-8.9-7.1-16-16-16zM127 167.9c-20.2 0-37.2 30.4-37.2 66.5 0 4.1.2 8.1.6 12.1 10.3 3.3 22.9 5.2 36.5 5.2s26.2-1.9 36.5-5.2c.4-3.9.7-7.9.7-12.1.1-36.1-16.9-66.5-37.1-66.5zm-22.4 64.9c0 2.4-2 4.4-4.4 4.4-2.4 0-4.4-2-4.4-4.4v-15.3c0-2.4 2-4.4 4.4-4.4 2.4 0 4.4 2 4.4 4.4v15.3zm17.6 0c0 2.4-2 4.4-4.4 4.4-2.4 0-4.4-2-4.4-4.4v-15.3c0-2.4 2-4.4 4.4-4.4 2.4 0 4.4 2 4.4 4.4v15.3zm17.7 0c0 2.4-2 4.4-4.4 4.4-2.4 0-4.4-2-4.4-4.4v-15.3c0-2.4 2-4.4 4.4-4.4 2.4 0 4.4 2 4.4 4.4v15.3zm17.7 0c0 2.4-2 4.4-4.4 4.4-2.4 0-4.4-2-4.4-4.4v-15.3c0-2.4 2-4.4 4.4-4.4 2.4 0 4.4 2 4.4 4.4v15.3zM63.6 116.4v11.4h91.9c1.7 0 3.1 1.4 3.1 3.1 0 1.7-1.4 3.1-3.1 3.1h-91.9v89.4c0 7.6 6.8 14.5 17.7 19.6-.2-2.8-.3-5.6-.3-8.5 0-42.2 20.2-75.3 46-75.3s46 33.1 46 75.3c0 2.9-.1 5.7-.3 8.5 10.9-5.1 17.7-12 17.7-19.6v-107h-126.8zM127 58.8c-2.2 0-4-1.8-4-4s1.8-4 4-4h62.9c-.7-2.2-1.5-4.4-2.5-6.5h-37.4c-3.7 0-6.7-3-6.7-6.7s3-6.7 6.7-6.7h29.7c-12.1-16.3-31.2-26.5-52.7-26.5-33.7 0-61.6 25.2-65.8 59.6h131.5c-.2-1.7-.5-3.4-.8-5.1l-64.9-.1zm4.6-28.1c3.8 0 7 3.1 7 7 0 3.8-3.1 7-7 7-3.8 0-7-3.1-7-7s3.2-7 7-7z"/></svg>

<?xml version="1.0" encoding="utf-8"?>
<!-- Generator: Adobe Illustrator 18.1.1, SVG Export Plug-In . SVG Version: 6.00 Build 0)  -->
<!DOCTYPE svg PUBLIC "-//W3C//DTD SVG 1.1//EN" "http://www.w3.org/Graphics/SVG/1.1/DTD/svg11.dtd">
<svg version="1.1" id="Layer_1" xmlns="http://www.w3.org/2000/svg" xmlns:xlink="http://www.w3.org/1999/xlink" x="0px" y="0px"
	 viewBox="0 0 256 256" style="enable-background:new 0 0 256 256;" xml:space="preserve">
<style type="text/css">
	.st0{fill:#4F9AD4;}
</style>
<path class="st0" d="M40.7,109.9c0,0-1.8-4.4-1.8-9.9c0-5.4,1.8-9.9,1.8-9.9l0,0l0,0h0c-0.3,0-37.2,9.9-37.2,9.9
	S40.4,109.9,40.7,109.9L40.7,109.9z"/>
<path class="st0" d="M215.3,90.2c0,0,1.8,4.4,1.8,9.9c0,5.4-1.8,9.9-1.8,9.9l0,0l0,0h0c0.3,0,37.2-9.9,37.2-9.9
	S215.6,90.2,215.3,90.2L215.3,90.2z"/>
<circle class="st0" cx="89.8" cy="99.5" r="11.1"/>
<path class="st0" d="M196,85.7c1.4,0,2.6,1.2,2.6,2.6v23.4c0,1.4-1.2,2.6-2.6,2.6H60c-1.4,0-2.6-1.2-2.6-2.6V88.4
	c0-1.4,1.2-2.6,2.6-2.6H196 M196,72.4H60c-8.8,0-16,7.1-16,16v23.4c0,8.8,7.1,16,16,16H196c8.8,0,16-7.1,16-16V88.4
	C212,79.5,204.9,72.4,196,72.4L196,72.4z"/>
<path class="st0" d="M127,167.9c-20.2,0-37.2,30.4-37.2,66.5c0,4.1,0.2,8.1,0.6,12.1c10.3,3.3,22.9,5.2,36.5,5.2s26.2-1.9,36.5-5.2
	c0.4-3.9,0.7-7.9,0.7-12.1C164.2,198.3,147.2,167.9,127,167.9z M104.6,232.8c0,2.4-2,4.4-4.4,4.4c-2.4,0-4.4-2-4.4-4.4v-15.3
	c0-2.4,2-4.4,4.4-4.4c2.4,0,4.4,2,4.4,4.4V232.8z M122.2,232.8c0,2.4-2,4.4-4.4,4.4c-2.4,0-4.4-2-4.4-4.4v-15.3c0-2.4,2-4.4,4.4-4.4
	c2.4,0,4.4,2,4.4,4.4V232.8z M139.9,232.8c0,2.4-2,4.4-4.4,4.4c-2.4,0-4.4-2-4.4-4.4v-15.3c0-2.4,2-4.4,4.4-4.4c2.4,0,4.4,2,4.4,4.4
	V232.8z M157.6,232.8c0,2.4-2,4.4-4.4,4.4c-2.4,0-4.4-2-4.4-4.4v-15.3c0-2.4,2-4.4,4.4-4.4c2.4,0,4.4,2,4.4,4.4V232.8z"/>
<path class="st0" d="M63.6,116.4v11.4h91.9c1.7,0,3.1,1.4,3.1,3.1c0,1.7-1.4,3.1-3.1,3.1H63.6v89.4c0,7.6,6.8,14.5,17.7,19.6
	c-0.2-2.8-0.3-5.6-0.3-8.5c0-42.2,20.2-75.3,46-75.3c25.8,0,46,33.1,46,75.3c0,2.9-0.1,5.7-0.3,8.5c10.9-5.1,17.7-12,17.7-19.6v-107
	H63.6z"/>
<path class="st0" d="M127,58.8c-2.2,0-4-1.8-4-4c0-2.2,1.8-4,4-4h62.9c-0.7-2.2-1.5-4.4-2.5-6.5h-37.4c-3.7,0-6.7-3-6.7-6.7
	s3-6.7,6.7-6.7h29.7C167.6,14.6,148.5,4.4,127,4.4c-33.7,0-61.6,25.2-65.8,59.6h131.5c-0.2-1.7-0.5-3.4-0.8-5.1L127,58.8L127,58.8z
	 M131.6,30.7c3.8,0,7,3.1,7,7c0,3.8-3.1,7-7,7c-3.8,0-7-3.1-7-7C124.6,33.8,127.8,30.7,131.6,30.7z"/>
<g>
</g>
<g>
</g>
<g>
</g>
<g>
</g>
<g>
</g>
<g>
</g>
</svg>
